packages/icons/src/components/Flags/assets/disabled/united-kingdom.svg

<svg width="24" height="24" viewBox="0 0 24 24" fill="none" xmlns="http://www.w3.org/2000/svg">
<g>
<path d="M12 24C18.6274 24 24 18.6274 24 12C24 5.37258 18.6274 0 12 0C5.37258 0 0 5.37258 0 12C0 18.6274 5.37258 24 12 24Z" fill="#F0F0F0"/>
<path d="M2.48124 4.69458C1.53863 5.92097 0.827861 7.33449 0.414001 8.87006H6.65672L2.48124 4.69458Z" fill="#454545"/>
<path d="M23.5877 8.86966C23.1738 7.33412 22.463 5.92061 21.5204 4.69421L17.345 8.86966H23.5877Z" fill="#454545"/>
<path d="M0.414001 15.1309C0.827908 16.6664 1.53867 18.0799 2.48124 19.3063L6.65658 15.1309H0.414001Z" fill="#454545"/>
<path d="M19.3066 2.48086C18.0802 1.53825 16.6667 0.82748 15.1311 0.413574V6.65625L19.3066 2.48086Z" fill="#454545"/>
<path d="M4.69543 21.5195C5.92183 22.4621 7.33534 23.1728 8.87087 23.5867V17.3441L4.69543 21.5195Z" fill="#454545"/>
<path d="M8.87082 0.413574C7.33529 0.82748 5.92178 1.53825 4.69543 2.48081L8.87082 6.6562V0.413574Z" fill="#454545"/>
<path d="M15.1302 23.5867C16.6658 23.1728 18.0793 22.4621 19.3056 21.5195L15.1302 17.3441V23.5867Z" fill="#454545"/>
<path d="M17.345 15.1309L21.5204 19.3063C22.463 18.08 23.1738 16.6664 23.5877 15.1309H17.345Z" fill="#454545"/>
<path d="M23.8984 10.4348H13.5653H13.5653V0.101578C13.0529 0.034875 12.5305 0 12 0C11.4694 0 10.9471 0.034875 10.4348 0.101578V10.4347V10.4347H0.101578C0.034875 10.9471 0 11.4695 0 12C0 12.5306 0.034875 13.0529 0.101578 13.5652H10.4347H10.4347V23.8984C10.9471 23.9651 11.4694 24 12 24C12.5305 24 13.0529 23.9652 13.5652 23.8984V13.5653V13.5653H23.8984C23.9651 13.0529 24 12.5306 24 12C24 11.4695 23.9651 10.9471 23.8984 10.4348Z" fill="#7B7B7B"/>
<path d="M15.1302 15.1303L20.4851 20.4851C20.7313 20.2389 20.9663 19.9815 21.1904 19.7147L16.606 15.1302H15.1302V15.1303Z" fill="#7B7B7B"/>
<path d="M8.86907 15.1304H8.86898L3.51422 20.4851C3.76041 20.7314 4.0178 20.9664 4.28461 21.1905L8.86907 16.6059V15.1304Z" fill="#7B7B7B"/>
<path d="M8.86896 8.86961V8.86951L3.51415 3.51465C3.26787 3.76084 3.03293 4.01823 2.80878 4.28504L7.39329 8.86956H8.86896V8.86961Z" fill="#7B7B7B"/>
<path d="M15.1302 8.86956L20.4851 3.51465C20.2389 3.26837 19.9815 3.03344 19.7147 2.80933L15.1302 7.39384V8.86956Z" fill="#7B7B7B"/>
</g>
</svg>

<svg xmlns="http://www.w3.org/2000/svg" width="24" height="24" fill="none" viewBox="0 0 24 24">
    <path fill="#f0f0f0" d="M12 24c6.627 0 12-5.373 12-12S18.627 0 12 0 0 5.373 0 12s5.373 12 12 12"/>
    <path fill="#454545" d="M2.481 4.695A12 12 0 0 0 .414 8.87h6.243zM23.588 8.87a12 12 0 0 0-2.068-4.176L17.345 8.87zM.414 15.13a12 12 0 0 0 2.067 4.176l4.176-4.175zM19.307 2.48A12 12 0 0 0 15.13.415v6.242zM4.695 21.52a12 12 0 0 0 4.176 2.067v-6.243zM8.87.414A12 12 0 0 0 4.696 2.48l4.176 4.175zm6.26 23.173a12 12 0 0 0 4.176-2.067l-4.176-4.176zm2.215-8.457 4.175 4.176a12 12 0 0 0 2.068-4.175z"/>
    <path fill="#7b7b7b" d="M23.898 10.435H13.565V.102a12 12 0 0 0-3.13 0v10.333H.102a12 12 0 0 0 0 3.13h10.333v10.333a12 12 0 0 0 3.13 0V13.565h10.333a12 12 0 0 0 0-3.13"/>
    <path fill="#7b7b7b" d="m15.13 15.13 5.355 5.355q.369-.37.705-.77l-4.584-4.585zm-6.26 0-5.355 5.355q.37.369.77.706l4.585-4.585zm-.001-6.26L3.514 3.515a12 12 0 0 0-.705.77L7.393 8.87zm6.261 0 5.355-5.355a12 12 0 0 0-.77-.706L15.13 7.394z"/>
</svg>
